share/icons/multicolor/symbolic/actions/paint-gradient-conical-symbolic.svg

<?xml version="1.0" encoding="UTF-8" standalone="no"?>
<svg
   xmlns:dc="http://purl.org/dc/elements/1.1/"
   xmlns:cc="http://creativecommons.org/ns#"
   xmlns:rdf="http://www.w3.org/1999/02/22-rdf-syntax-ns#"
   xmlns:svg="http://www.w3.org/2000/svg"
   xmlns="http://www.w3.org/2000/svg"
   xmlns:xlink="http://www.w3.org/1999/xlink"
   xmlns:sodipodi="http://sodipodi.sourceforge.net/DTD/sodipodi-0.dtd"
   xmlns:inkscape="http://www.inkscape.org/namespaces/inkscape"
   inkscape:version="1.0.2 (e86c870879, 2021-01-15, custom)"
   sodipodi:docname="paint-gradient-conical-symbolic.svg"
   viewBox="0 0 16 16"
   height="16"
   width="16"
   id="svg1"
   version="1.1">
  <metadata
     id="metadata8144">
    <rdf:RDF>
      <cc:Work
         rdf:about="">
        <dc:format>image/svg+xml</dc:format>
        <dc:type
           rdf:resource="http://purl.org/dc/dcmitype/StillImage" />
      </cc:Work>
    </rdf:RDF>
  </metadata>
  <defs
     id="defs8142">
    <clipPath
       clipPathUnits="userSpaceOnUse"
       id="clipPath869">
      <circle
         style="fill:#000000;stroke-width:30.844;paint-order:markers stroke fill"
         id="circle871"
         cx="8.0469933"
         cy="8.1063957"
         r="7.7291269" />
    </clipPath>
  </defs>
  <style
     id="s0">
.success { fill:#009909; }
.warning { fill:#FF1990; }
.error { fill:#00AAFF; }
</style>
  <style
     id="s2">
@import '../../highlights.css';
</style>
  <sodipodi:namedview
     inkscape:document-rotation="0"
     inkscape:current-layer="svg1"
     inkscape:window-maximized="1"
     inkscape:window-y="-8"
     inkscape:window-x="54"
     inkscape:window-height="1177"
     inkscape:window-width="1858"
     inkscape:cy="24.739696"
     inkscape:cx="-10.245422"
     inkscape:zoom="15.046875"
     showgrid="true"
     id="namedview"
     guidetolerance="10"
     gridtolerance="10"
     objecttolerance="10">
    <inkscape:grid
       id="grid"
       type="xygrid" />
  </sodipodi:namedview>
  <g
     id="paint-gradient-conical"
     inkscape:label="paint-gradient-conical">
    <path
       style="opacity:0;fill:none"
       d="M 0,0 H 16 V 16 H 0 Z"
       id="rect36996"
       inkscape:connector-curvature="0" />
    <circle
       style="display:inline;fill:#000000;fill-opacity:1;fill-rule:evenodd;stroke-width:7.675;stroke-linecap:round;stroke-linejoin:round;stroke-dashoffset:39.1425"
       id="bg-circle"
       cx="8"
       cy="8"
       r="7.7175493" />
    <g
       id="g865"
       clip-path="url(#clipPath869)">
      <g
         id="gradeint-circl"
         style="display:inline"
         transform="matrix(1.3604172,0,0,1.3604172,-8.4377824,-8.4976229)">
        <path
           sodipodi:nodetypes="ssscs"
           class="error"
           d="m 8.0740023,13.593476 c -3.0782851,0 -5.5737282,-2.495443 -5.573728,-5.5737283 0,-3.0782849 2.4954431,-5.5737279 5.573728,-5.5737279 3.0782847,2e-7 5.5737277,2.4954431 5.5737277,5.5737279 0,3.0782853 -2.495443,5.5737283 -5.5737277,5.5737283 z"
           style="opacity:0.169355;stroke-width:1.07915"
           id="g1" />
        <path
           class="error"
           d="m 8.0740023,12.858251 c -2.6722316,0 -4.8385033,-2.166272 -4.8385034,-4.8385033 10e-8,-2.6722316 2.1662718,-4.8385033 4.8385034,-4.8385033 2.6722317,-2e-7 4.8385037,2.1662716 4.8385037,4.8385033 0,2.6722313 -2.166272,4.8385033 -4.8385037,4.8385033 z"
           style="opacity:0.2;stroke-width:1.07648"
           id="g1-2"
           sodipodi:nodetypes="ssscs" />
        <path
           class="error"
           d="m 8.0740023,12.028643 c -2.2140518,0 -4.0088955,-1.794843 -4.0088957,-4.0088953 0,-2.2140519 1.7948438,-4.0088957 4.0088957,-4.0088956 2.2140517,-1e-7 4.0088957,1.7948437 4.0088957,4.0088956 0,2.2140523 -1.794844,4.0088953 -4.0088957,4.0088953 z"
           style="opacity:0.2;stroke-width:1.04056"
           id="g1-3"
           sodipodi:nodetypes="ssscs" />
        <path
           class="error"
           d="m 8.0740023,11.395516 c -1.8643854,0 -3.3757685,-1.5113829 -3.3757687,-3.3757683 1e-7,-1.8643855 1.5113832,-3.3757686 3.3757687,-3.3757686 1.8643855,0 3.3757687,1.5113831 3.3757687,3.3757686 0,1.8643854 -1.5113833,3.3757683 -3.3757687,3.3757683 z"
           style="opacity:0.3;stroke-width:1.04853"
           id="g1-4"
           sodipodi:nodetypes="ssscs" />
        <path
           class="error"
           d="m 8.0740023,10.606139 c -1.4284245,0 -2.5863915,-1.1579668 -2.5863917,-2.5863913 0,-1.4284247 1.157967,-2.5863917 2.5863917,-2.5863917 1.4284247,0 2.5863917,1.157967 2.5863917,2.5863917 0,1.4284245 -1.1579672,2.5863913 -2.5863917,2.5863913 z"
           style="opacity:0.6"
           id="g1-5"
           sodipodi:nodetypes="ssscs" />
        <path
           class="error"
           d="m 8.0740023,9.9819926 c -1.0837179,0 -1.9622449,-0.878527 -1.9622449,-1.9622449 1e-7,-1.0837179 0.878527,-1.9622448 1.9622449,-1.9622448 1.0837178,10e-8 1.9622447,0.878527 1.9622447,1.9622448 0,1.0837179 -0.8785268,1.9622448 -1.9622447,1.9622449 z"
           id="g1-6"
           sodipodi:nodetypes="ssscs" />
      </g>
      <use
         transform="translate(11,11)"
         height="100%"
         width="100%"
         id="use855"
         xlink:href="#gradeint-circl"
         y="0"
         x="0"
         style="display:inline" />
    </g>
    <path
       style="opacity:1;stroke-linecap:butt"
       d="M 8,0 C 3.5876443,0 0,3.5876443 0,8 c 0,4.412356 3.5876443,8 8,8 4.412356,0 8,-3.587644 8,-8 C 16,3.5876443 12.412356,0 8,0 Z m 0,1 c 3.871916,0 7,3.1280844 7,7 0,3.871916 -3.128084,7 -7,7 C 4.1280844,15 1,11.871916 1,8 1,4.1280844 4.1280844,1 8,1 Z"
       id="Outline-circ"
       inkscape:connector-curvature="0" />
  </g>
</svg>

<?xml version="1.0" encoding="UTF-8" standalone="no"?>
<svg
   xmlns:dc="http://purl.org/dc/elements/1.1/"
   xmlns:cc="http://creativecommons.org/ns#"
   xmlns:rdf="http://www.w3.org/1999/02/22-rdf-syntax-ns#"
   xmlns:svg="http://www.w3.org/2000/svg"
   xmlns="http://www.w3.org/2000/svg"
   xmlns:xlink="http://www.w3.org/1999/xlink"
   xmlns:sodipodi="http://sodipodi.sourceforge.net/DTD/sodipodi-0.dtd"
   xmlns:inkscape="http://www.inkscape.org/namespaces/inkscape"
   inkscape:version="1.0 (4035a4fb49, 2020-05-01)"
   sodipodi:docname="paint-gradient-conical-symbolic.svg"
   viewBox="0 0 16 16"
   height="16"
   width="16"
   id="svg1"
   version="1.1">
  <metadata
     id="metadata8144">
    <rdf:RDF>
      <cc:Work
         rdf:about="">
        <dc:format>image/svg+xml</dc:format>
        <dc:type
           rdf:resource="http://purl.org/dc/dcmitype/StillImage" />
      </cc:Work>
    </rdf:RDF>
  </metadata>
  <defs
     id="defs8142">
    <clipPath
       clipPathUnits="userSpaceOnUse"
       id="clipPath869">
      <circle
         style="fill:#000000;stroke-width:30.844;paint-order:markers stroke fill"
         id="circle871"
         cx="8.0469933"
         cy="8.1063957"
         r="7.7291269" />
    </clipPath>
  </defs>
  <style
     id="s0">
.success { fill:#009909; }
.warning { fill:#FF1990; }
.error { fill:#00AAFF; }
</style>
  <style
     id="s2">
@import '../../highlights.css';
</style>
  <sodipodi:namedview
     inkscape:document-rotation="0"
     inkscape:current-layer="g865"
     inkscape:window-maximized="1"
     inkscape:window-y="-8"
     inkscape:window-x="54"
     inkscape:window-height="1177"
     inkscape:window-width="1858"
     inkscape:cy="12.436324"
     inkscape:cx="1.4838237"
     inkscape:zoom="30.09375"
     showgrid="true"
     id="namedview"
     guidetolerance="10"
     gridtolerance="10"
     objecttolerance="10">
    <inkscape:grid
       id="grid"
       type="xygrid" />
  </sodipodi:namedview>
  <g
     id="paint-gradient-conical"
     inkscape:label="00350">
    <path
       style="opacity:0;fill:none"
       d="M 0,0 H 16 V 16 H 0 Z"
       id="rect36996"
       inkscape:connector-curvature="0" />
    <path
       style="display:none;opacity:0.6"
       d="M 0.5,7.9999974 A 7.5,7.5 0 0 1 8.0000001,0.5 L 8,8 Z"
       id="path36998"
       inkscape:connector-curvature="0" />
    <path
       style="display:none;opacity:0.6"
       d="M 15.5,8 A 7.5,7.5 0 0 1 8.0000025,15.5 L 8,8 Z"
       id="path37000"
       inkscape:connector-curvature="0" />
    <g
       id="g865"
       clip-path="url(#clipPath869)">
      <g
         id="g3210"
         inkscape:label="gradeint"
         transform="matrix(1.3604172,0,0,1.3604172,-8.4377824,-8.4976229)">
        <path
           sodipodi:nodetypes="csssc"
           class="error"
           d="m 13.64773,8.0197477 c 0,3.0782853 -2.495443,5.5737283 -5.5737277,5.5737283 -3.0782851,0 -5.5737282,-2.495443 -5.573728,-5.5737283 0,-3.0782849 2.4954431,-5.5737279 5.573728,-5.5737279 3.0782847,2e-7 5.5737277,2.4954431 5.5737277,5.5737279"
           style="opacity:0.169355;stroke-width:1.07915"
           id="g1" />
        <path
           class="error"
           d="M 12.912506,8.0197477 A 4.8385034,4.8385034 0 0 1 8.0740023,12.858251 4.8385034,4.8385034 0 0 1 3.2354989,8.0197477 4.8385034,4.8385034 0 0 1 8.0740023,3.1812444 4.8385034,4.8385034 0 0 1 12.912506,8.0197477"
           style="opacity:0.2;stroke-width:1.07648"
           id="g1-2" />
        <path
           class="error"
           d="M 12.082898,8.0197477 A 4.0088956,4.0088956 0 0 1 8.0740023,12.028643 4.0088956,4.0088956 0 0 1 4.0651066,8.0197477 4.0088956,4.0088956 0 0 1 8.0740023,4.0108521 4.0088956,4.0088956 0 0 1 12.082898,8.0197477"
           style="opacity:0.2;stroke-width:1.04056"
           id="g1-3" />
        <path
           class="error"
           d="M 11.449771,8.0197477 A 3.3757687,3.3757687 0 0 1 8.0740023,11.395516 3.3757687,3.3757687 0 0 1 4.6982336,8.0197477 3.3757687,3.3757687 0 0 1 8.0740023,4.6439791 3.3757687,3.3757687 0 0 1 11.449771,8.0197477"
           style="opacity:0.3;stroke-width:1.04853"
           id="g1-4" />
        <path
           class="error"
           d="M 10.660394,8.0197477 A 2.5863917,2.5863917 0 0 1 8.0740023,10.606139 2.5863917,2.5863917 0 0 1 5.4876106,8.0197477 2.5863917,2.5863917 0 0 1 8.0740023,5.433356 2.5863917,2.5863917 0 0 1 10.660394,8.0197477"
           style="opacity:0.6"
           id="g1-5" />
        <path
           class="error"
           d="M 10.036247,8.0197477 A 1.9622449,1.9622449 0 0 1 8.0740023,9.9819926 1.9622449,1.9622449 0 0 1 6.1117574,8.0197477 1.9622449,1.9622449 0 0 1 8.0740023,6.0575029 1.9622449,1.9622449 0 0 1 10.036247,8.0197477"
           id="g1-6" />
      </g>
      <use
         transform="translate(10.784299,11.187974)"
         height="100%"
         width="100%"
         id="use855"
         xlink:href="#g3210"
         y="0"
         x="0" />
    </g>
    <path
       style="opacity:1;stroke-linecap:butt"
       d="M 8,0 C 3.5876443,0 0,3.5876443 0,8 c 0,4.412356 3.5876443,8 8,8 4.412356,0 8,-3.587644 8,-8 C 16,3.5876443 12.412356,0 8,0 Z m 0,1 c 3.871916,0 7,3.1280844 7,7 0,3.871916 -3.128084,7 -7,7 C 4.1280844,15 1,11.871916 1,8 1,4.1280844 4.1280844,1 8,1 Z"
       id="circle37002"
       inkscape:connector-curvature="0" />
  </g>
</svg>
